icon/cg/compress-v.svg

<svg viewBox="0 0 24 24" fill="none" xmlns="http://www.w3.org/2000/svg" height="1em" width="1em">
  <path d="M13.0338 7.3559L15.4999 4.85376L16.9244 6.25768L12.0107 11.2432L7.02515 6.32948L8.42907 4.90505L11.0329 7.47139L11.0834 0.843506L13.0833 0.858735L13.0338 7.3559Z" fill="currentColor"/>
  <path d="M15.5627 18.532L16.9749 17.1159L12.0184 12.1729L7.07543 17.1295L8.49159 18.5418L11.0762 15.95L11.1019 23.1566L13.1019 23.1495L13.0765 16.0528L15.5627 18.532Z" fill="currentColor"/>
</svg>

<svg width="24" height="24" fill="none" xmlns="http://www.w3.org/2000/svg"><path d="M13.034 7.356 15.5 4.854l1.424 1.404-4.913 4.985L7.025 6.33 8.43 4.905l2.604 2.566.05-6.627 2 .015-.05 6.497ZM15.563 18.532l1.412-1.416-4.957-4.943-4.943 4.957 1.417 1.412 2.584-2.592.026 7.207 2-.008-.026-7.096 2.487 2.479Z" fill="currentColor"/></svg>
